dist/images/icons/gitskill.svg

<svg width="50" height="41" viewBox="0 0 50 41" fill="none" xmlns="http://www.w3.org/2000/svg">
<path d="M21.0938 10.7773H13.3789C9.47266 9.70312 0.585938 9.99609 0.585938 18.1016C0.585938 21.0312 2.05078 23.082 4.00391 24.0586C1.5625 26.3047 0.390625 27.3789 0.390625 28.8438C0.390625 29.918 0.78125 30.8945 2.14844 31.4805C0.78125 32.75 0 33.7266 0 35.4844C0 38.6094 2.73438 40.4648 9.86328 40.4648C16.7969 40.4648 20.8008 37.9258 20.8008 33.3359C20.8008 27.5742 16.4062 27.7695 5.95703 27.1836L7.32422 25.0352C9.96094 25.8164 18.8477 26.0117 18.8477 18.3945C18.8477 16.6367 18.1641 15.3672 17.3828 14.3906L21.0938 14.0977V10.7773ZM14.8438 34.4102C14.8438 37.5352 4.58984 37.5352 4.58984 34.6055C4.58984 33.8242 5.17578 33.1406 5.66406 32.5547C13.2812 33.043 14.8438 32.8477 14.8438 34.4102ZM9.96094 21.2266C4.78516 21.2266 4.98047 14.293 10.0586 14.293C14.8438 14.293 15.0391 21.2266 9.96094 21.2266ZM22.9492 31.0898H34.2773V27.9648L32.2266 27.6719C31.6406 27.5742 31.6406 27.4766 31.6406 26.8906V10.3867H23.3398L22.9492 13.6094C25.3906 14.4883 25.5859 14.3906 25.5859 15.1719V26.8906C25.5859 27.7695 25.5859 27.5742 22.9492 27.9648V31.0898ZM28.0273 7.16406C30.3711 7.16406 31.6406 5.89453 31.6406 3.64844C31.6406 1.40234 30.3711 0.132812 28.0273 0.132812C25.7812 0.132812 24.5117 1.40234 24.5117 3.64844C24.5117 5.89453 25.7812 7.16406 28.0273 7.16406ZM50 29.5273L48.9258 26.0117C42.4805 28.4531 42.9688 24.0586 42.9688 23.375V13.9023H48.9258V9.99609H43.2617C42.8711 9.99609 42.9688 10.3867 42.9688 3.94141H39.1602C38.7695 8.23828 37.4023 9.99609 33.8867 10.3867V13.9023C37.1094 13.9023 37.0117 13.8047 37.0117 14.293V24.7422C37.0117 29.2344 38.7695 31.0898 43.457 31.0898C45.7031 31.0898 48.2422 30.3086 50 29.5273Z" fill="#fff"/>
</svg>

<svg width="50" height="41" fill="none" xmlns="http://www.w3.org/2000/svg"><path d="M21.094 10.777h-7.715C9.473 9.703.586 9.997.586 18.102c0 2.93 1.465 4.98 3.418 5.957C1.563 26.305.39 27.379.39 28.844c0 1.074.39 2.05 1.757 2.636C.781 32.75 0 33.727 0 35.484c0 3.125 2.734 4.98 9.863 4.98 6.934 0 10.938-2.538 10.938-7.128 0-5.762-4.395-5.566-14.844-6.152l1.367-2.149c2.637.781 11.524.977 11.524-6.64 0-1.758-.684-3.028-1.465-4.004l3.71-.293v-3.32zm-6.25 23.633c0 3.125-10.254 3.125-10.254.196 0-.782.586-1.465 1.074-2.051 7.617.488 9.18.293 9.18 1.855zM9.96 21.227c-5.176 0-4.98-6.934.098-6.934 4.785 0 4.98 6.934-.098 6.934zm12.988 9.863h11.328v-3.125l-2.05-.293c-.586-.098-.586-.195-.586-.781V10.387h-8.3l-.39 3.222c2.44.88 2.636.782 2.636 1.563V26.89c0 .879 0 .683-2.637 1.074v3.125zm5.078-23.926c2.344 0 3.614-1.27 3.614-3.516S30.37.133 28.027.133c-2.246 0-3.515 1.27-3.515 3.515 0 2.247 1.27 3.516 3.515 3.516zM50 29.527l-1.074-3.515c-6.446 2.441-5.957-1.953-5.957-2.637v-9.473h5.957V9.996h-5.664c-.39 0-.293.39-.293-6.055H39.16c-.39 4.297-1.758 6.055-5.273 6.446v3.515c3.222 0 3.125-.097 3.125.391v10.45c0 4.491 1.758 6.347 6.445 6.347 2.246 0 4.785-.781 6.543-1.563z" fill="#fff"/></svg>
